dist/assets/img/svg/icon-inner-01.svg

<svg width="107" height="107" viewBox="0 0 107 107" fill="none" xmlns="http://www.w3.org/2000/svg">
<path d="M89.5597 73.2206C88.3039 72.9341 87.06 72.606 85.8102 72.3016C84.8654 72.0749 83.8786 71.9556 82.9697 71.6274C80.9783 70.9233 79.3996 68.6857 79.4893 66.5913C79.561 64.9682 79.7165 63.3452 79.8361 61.7282C79.8421 61.6208 79.8899 61.5193 79.9019 61.4119C79.9617 60.5825 80.1172 59.7472 80.0514 58.9297C79.9378 57.5036 79.7285 56.0715 79.4713 54.6633C79.2142 53.2611 78.8733 51.8708 78.5205 50.4864C77.9524 48.2369 77.0853 46.1007 75.973 44.06C74.6694 41.6732 73.0129 39.555 71.183 37.556C68.8866 35.044 66.1956 33.057 63.3252 31.249C61.3577 30.0078 59.0793 29.6618 57.0401 28.6772C56.8129 28.5698 56.5857 28.4147 56.3465 28.3669C55.1803 28.1223 54.0083 27.9015 52.8362 27.6867C51.6461 27.4719 50.4441 27.1019 49.2541 27.1019C46.7544 27.1019 44.2488 27.275 41.7491 27.4241C40.6189 27.4898 39.5544 27.4003 38.5378 26.8692C36.1518 25.6221 35.5657 23.3368 35.1292 20.9798C34.9558 20.049 34.9079 19.1002 34.7764 18.1575C34.6807 17.4593 34.5671 16.7552 34.4176 16.069C34.2442 15.2575 33.987 14.4579 33.8256 13.6405C33.6581 12.7872 33.5624 11.922 33.401 10.842C31.3079 11.8026 29.4182 12.7693 27.4448 13.539C25.2143 14.4102 23.2648 15.7408 21.3153 17.0595C20.0236 17.9307 18.8216 18.9332 17.6076 19.9117C14.8867 22.1016 12.5425 24.6555 10.4555 27.442C9.36711 28.898 8.33256 30.3957 7.34585 31.9173C6.57442 33.1107 5.82691 34.3339 5.24087 35.6227C4.38572 37.5023 3.66213 39.4416 2.91462 41.3689C2.46014 42.5504 1.96977 43.7318 1.67077 44.961C1.24021 46.7452 0.893362 48.5531 0.64818 50.3731C0.361137 52.4496 0.133894 54.538 0.0382135 56.6324C-0.0933478 59.4607 0.115954 62.2831 0.64818 65.0757C0.779741 65.7559 0.863462 66.4481 0.995023 67.1343C1.22227 68.3038 1.37177 69.5031 1.72459 70.6369C2.26878 72.3911 2.90864 74.1216 3.60233 75.8222C4.25416 77.4332 4.98372 79.0145 5.76113 80.5718C6.38904 81.8309 7.0887 83.0601 7.84219 84.2535C8.41628 85.1545 9.10996 85.9839 9.76777 86.8312C10.3478 87.583 10.9279 88.3349 11.5438 89.0569C12.7937 90.5188 13.9478 92.0881 15.3651 93.371C17.3445 95.1611 19.5093 96.7602 21.6382 98.3892C22.6309 99.153 23.6714 99.863 24.7598 100.478C25.9259 101.134 27.1638 101.677 28.3957 102.214C30.3631 103.073 32.3066 104.01 34.3398 104.678C36.3611 105.341 38.4661 105.788 40.5591 106.188C42.4548 106.552 44.3863 106.892 46.3119 106.958C48.985 107.053 51.6701 106.982 54.3372 106.797C56.2627 106.665 58.1943 106.361 60.072 105.925C62.1531 105.442 64.2102 104.786 66.2195 104.07C68.1571 103.378 70.1006 102.632 71.9126 101.671C74.0415 100.549 76.0866 99.2425 78.072 97.882C79.6448 96.8079 81.0919 95.5549 82.569 94.3436C85.4693 91.9568 87.8913 89.1225 89.9962 86.0436C91.4315 83.9372 92.6514 81.6817 93.8893 79.4501C94.5291 78.2984 95.0135 77.0573 95.5218 75.84C95.7192 75.3687 95.7909 74.8436 95.9225 74.3185C94.3796 74.0619 92.9803 73.8292 91.575 73.5905C90.8992 73.4771 90.2235 73.3757 89.5597 73.2265V73.2206ZM15.4309 45.3668C15.4309 46.1723 14.4741 47.0256 13.583 47.0017C12.7339 46.9838 11.9027 46.1962 11.9146 45.3668C11.9326 44.5672 12.4708 43.5886 13.6728 43.7259C14.6595 43.7318 15.4369 44.4538 15.4309 45.3608V45.3668ZM9.96511 39.9786C10.0369 38.7196 10.8502 38.2064 11.7472 38.2721C12.8415 38.3496 13.4754 39 13.3678 40.1159C13.3319 41.1839 12.6083 41.8582 11.5438 41.8105C10.6409 41.7747 9.90531 40.9393 9.95913 39.9727L9.96511 39.9786ZM12.3512 78.2984C11.4541 78.3163 10.5213 77.481 10.5332 76.6217C10.5452 75.6909 11.4242 74.6884 12.2794 74.8913C13.2541 74.8913 13.9777 75.5954 13.9957 76.568C14.0076 77.481 13.2541 78.2805 12.3512 78.2984ZM14.0495 50.7013C14.0316 49.7167 14.8209 48.935 15.8375 48.941C16.7525 48.941 17.6914 49.8181 17.7093 50.6714C17.7272 51.5008 16.7166 52.4197 15.8076 52.4078C14.8209 52.3959 14.0674 51.6679 14.0495 50.7013ZM17.7452 80.2317C17.0874 80.2317 15.8914 79.0025 15.8615 78.2925C15.8316 77.481 16.8541 76.5024 17.7212 76.5143C18.6541 76.5263 19.3598 77.3258 19.3538 78.37C19.3538 79.1517 18.4209 80.2258 17.7452 80.2317ZM18.092 57.8676C17.195 57.8676 16.4176 57.0143 16.4176 56.0357C16.4176 55.0452 17.1591 54.2874 18.1159 54.2934C19.0309 54.2993 19.9458 55.1765 19.9698 56.0655C19.9937 56.9785 19.0608 57.8676 18.086 57.8676H18.092ZM34.298 25.103C35.2069 25.1149 36.086 25.9622 36.086 26.8274C36.086 27.7881 35.2368 28.6712 34.298 28.6712C33.3352 28.6712 32.504 27.8359 32.504 26.8632C32.504 25.9384 33.3711 25.0851 34.298 25.103ZM31.4455 30.2226C32.5339 30.2346 33.1618 30.8671 33.1618 31.9531C33.1618 32.9734 32.4442 33.6835 31.4156 33.6895C30.4648 33.6954 29.5618 32.8242 29.5857 31.9173C29.6096 31.0401 30.5186 30.2107 31.4455 30.2226ZM23.2707 81.5564C22.1345 81.4908 21.6143 81.0134 21.6143 79.8319C21.6143 78.7818 22.2661 78.0657 23.2528 78.0419C24.1498 78.018 25.0289 78.8951 25.005 79.8319C24.9751 80.9537 24.1737 81.6041 23.2707 81.5504V81.5564ZM28.9398 83.1555C28.0608 83.1257 27.1398 82.2486 27.1458 81.3714C27.1518 80.4406 28.0249 79.5754 28.9578 79.5873C29.8608 79.5933 30.5784 80.357 30.5844 81.3118C30.5903 82.3321 29.8428 83.1854 28.9339 83.1555H28.9398ZM41.5398 100.322C40.6966 100.322 39.7159 99.4215 39.692 98.6279C39.6681 97.7806 40.577 96.8975 41.498 96.8855C42.5505 96.8736 43.274 97.5359 43.3039 98.5443C43.3338 99.5349 42.5624 100.322 41.5398 100.322ZM46.1684 97.1361C45.3192 97.1302 44.5179 96.2888 44.5119 95.3938C44.5 94.3794 45.1936 93.6813 46.2043 93.6872C47.2328 93.6872 47.9624 94.4033 47.9505 95.4057C47.9385 96.3485 47.1192 97.1481 46.1684 97.1421V97.1361ZM50.8568 93.6992C49.7863 93.6932 49.1883 93.0428 49.2063 91.9091C49.2302 90.7813 49.7744 90.2801 50.9704 90.2861C52.0289 90.292 52.5431 90.8529 52.5312 91.9807C52.5192 93.1204 51.9451 93.7051 50.8508 93.6992H50.8568ZM55.5332 90.2741C54.7737 90.2861 53.6494 89.385 53.799 88.3945C53.799 87.5413 54.6601 86.7238 55.5631 86.7238C56.5079 86.7238 57.4049 87.5651 57.375 88.4781C57.3451 89.4984 56.4421 90.2622 55.5391 90.2741H55.5332ZM49.5232 82.8393C35.2069 82.6006 24.2814 71.6154 24.2993 57.5215C24.3173 43.9705 35.189 32.4841 49.589 32.4603C63.4747 32.4364 74.8787 44.0421 74.765 57.784C74.6514 71.6453 63.3969 82.7438 49.5232 82.8393ZM76.9777 90.9484C76.0687 90.9603 75.2315 90.1011 75.2315 89.1583C75.2315 88.1559 75.961 87.3742 76.8939 87.3742C77.9285 87.3742 78.5265 88.0126 78.5325 89.1225C78.5385 90.1488 77.8687 90.9365 76.9777 90.9484ZM77.2228 85.1366C76.0926 85.1187 75.5424 84.5399 75.5723 83.3942C75.5963 82.5171 76.4514 81.628 77.2826 81.7115C78.1019 81.7951 78.9212 82.3202 78.9032 83.5434C78.8913 84.4563 78.1856 85.2798 77.2228 85.1366ZM77.4262 79.4381C76.565 79.4143 75.7517 78.5968 75.7398 77.7137C75.7278 76.8723 76.577 75.9176 77.4022 75.9475C78.1796 75.9773 79.1783 76.6158 79.1544 77.7077C79.2979 78.5192 78.1737 79.462 77.4262 79.4441V79.4381ZM77.5099 73.6084C76.571 73.5487 75.8714 72.8148 75.8833 71.7825C75.8953 70.9054 76.7803 70.0103 77.6295 70.0223C78.3531 70.0342 79.1963 71.0247 79.1903 71.8601C79.2262 72.8208 78.4607 73.6681 77.5159 73.6084H77.5099ZM106.8 56.4415C106.423 53.6012 106.364 50.6893 105.718 47.9087C104.911 44.4001 103.798 40.9453 102.548 37.568C101.239 34.0415 99.4208 30.7358 97.3278 27.5793C95.3006 24.5242 93.1657 21.5646 90.6421 18.8974C88.3039 16.427 85.7803 14.1417 83.0056 12.1666C81.4268 11.0448 79.8062 9.98869 78.1796 8.93254C74.5318 6.55769 70.573 4.80937 66.4707 3.38923C65.2926 2.98348 64.0727 2.71497 62.8707 2.38678C61.3278 1.96313 59.791 1.49174 58.2302 1.13372C56.9863 0.847308 55.7245 0.638465 54.4568 0.489291C53.0574 0.322216 51.6461 0.226744 50.2348 0.155141C49.2063 0.101438 48.1777 0.143207 47.1491 0.143207C47.1491 0.0954713 47.1431 0.0477357 47.1372 0C45.5166 0.155141 43.896 0.399786 42.2694 0.435588C40.4694 0.477357 38.7053 0.644432 36.9651 1.10389C36.2714 1.28886 34.7883 2.53596 34.8123 3.22812C34.8661 4.86904 34.9737 6.51592 35.1531 8.1449C35.2727 9.21895 35.5598 10.2751 35.7631 11.3432C35.787 11.4745 35.781 11.6117 35.8109 11.743C36.0083 12.6679 36.2355 13.5868 36.4089 14.5176C36.5584 15.3053 36.6242 16.1108 36.7797 16.8984C36.9531 17.7875 37.2043 18.6587 37.3837 19.5478C37.6229 20.7173 37.7425 21.9226 38.0714 23.0623C38.3226 23.9514 39.698 25.1925 40.8402 25.1209C43.286 24.9717 45.7378 24.8822 48.1897 24.7927C48.973 24.7629 49.7684 24.733 50.5398 24.8584C52.0588 25.103 53.5777 25.4013 55.0727 25.7594C56.7172 26.1532 58.3916 26.5052 59.9464 27.1377C61.8242 27.8955 63.6302 28.8741 65.4062 29.8646C66.5365 30.4971 67.6009 31.2728 68.6235 32.0784C70.4116 33.4866 72.1936 34.8828 73.6527 36.6849C75.4886 38.9463 77.1929 41.2735 78.4667 43.8929C79.1125 45.2236 79.6149 46.6258 80.1471 48.0102C80.5956 49.1856 81.0561 50.3671 81.3969 51.5784C81.6242 52.378 81.6361 53.2372 81.7677 54.0606C81.971 55.3256 82.3597 56.5906 82.3657 57.8616C82.3836 60.2723 82.1863 62.6829 82.0786 65.0936C82.0786 65.1473 82.0906 65.2129 82.0607 65.2547C81.5763 65.9946 81.7497 66.6927 82.0428 67.4803C82.4434 68.5783 83.5737 69.6046 84.7218 69.7179C85.4454 69.7896 86.163 69.9447 86.8747 70.1058C87.6042 70.2729 88.3099 70.5294 89.0454 70.6727C89.8946 70.8338 90.7617 70.8994 91.6168 71.0307C92.2328 71.1262 92.8487 71.2395 93.4587 71.3708C94.3258 71.5617 95.1869 71.7825 96.0481 71.9794C96.2574 72.0272 96.4726 72.0331 96.6819 72.0809C97.5192 72.2599 98.3444 72.4628 99.1876 72.6239C99.9291 72.7671 100.707 72.779 101.418 73.0057C103.398 73.6382 105.299 72.8148 105.873 70.8099C106.274 69.4017 106.501 67.9279 106.609 66.466C106.854 63.1364 107.243 59.8009 106.794 56.4534L106.8 56.4415ZM46.2162 15.6513C44.0754 15.6752 42.694 13.7658 42.7119 12.1845C42.7358 10.2214 44.5598 8.58049 46.294 8.72966C48.2076 8.73563 49.888 10.3765 49.8999 12.2442C49.9119 13.9508 48.0701 15.6334 46.2162 15.6573V15.6513ZM94.858 65.8335C92.8487 65.8096 91.4135 64.0493 91.3657 62.2712C91.3119 60.4274 93.0521 58.8282 94.9597 58.8342C97.2202 58.87 98.3863 60.5229 98.452 62.301C98.5118 64.0195 97.0886 65.8573 94.858 65.8335ZM50.5996 34.847C37.3598 34.3279 26.6734 44.6985 26.7392 57.6528C26.7033 70.1476 36.5345 80.3153 49.4156 80.4048C61.9737 80.5002 72.2175 70.5116 72.3431 57.7363C72.4687 45.2474 62.1591 35.2946 50.5996 34.8411V34.847ZM36.0023 69.6404C33.8614 69.6225 31.7804 67.9338 31.894 65.3859C31.9957 63.0529 33.5086 61.5432 36.0621 61.4298C38.3704 61.591 40.0568 62.9156 40.0747 65.5351C40.0927 68.1665 37.9637 69.6642 36.0023 69.6463V69.6404ZM37.8322 51.3815C35.6375 51.3517 33.8076 49.4959 33.8076 47.2523C33.6521 44.7343 36.0262 43.153 37.8501 43.1411C39.7279 43.1292 41.9704 44.6925 41.9704 47.2643C41.9704 49.5675 39.8116 51.3994 37.8322 51.3755V51.3815ZM52.7764 77.0215C50.2647 76.9678 48.692 74.9748 48.6621 72.9222C48.6322 70.8218 50.3245 68.9542 52.8601 68.7274C54.7797 68.8348 56.9564 70.5832 56.9205 72.8745C56.8847 75.2434 54.9292 77.0692 52.7764 77.0215ZM49.6069 65.7261C45.1996 65.8215 41.4023 62.0504 41.4262 57.6229C41.4501 53.1417 45.3491 49.4422 49.5471 49.5675C54.5704 49.484 57.6561 53.6668 57.6381 57.6826C57.6142 62.2473 53.9784 65.6306 49.6009 65.7261H49.6069ZM56.8488 47.3956C53.3445 47.5746 51.6282 45.7069 51.7956 43.4216C51.5504 40.82 53.9784 39.2328 55.7185 39.2626C57.8654 39.2984 59.8268 40.6589 59.9584 43.4275C60.0421 45.2534 58.3199 47.318 56.8488 47.3956ZM69.2096 59.2459C69.1617 61.2508 67.4275 63.2617 65.0415 63.2557C63.0023 63.2498 61.0288 61.7163 61.0229 59.228C61.0229 57.0143 62.7092 55.0034 65.1013 55.266C67.5052 54.902 69.2454 57.5095 69.2096 59.2519V59.2459Z" fill="#EC8020"/>
</svg>

<svg width="107" height="107" fill="none" xmlns="http://www.w3.org/2000/svg"><path d="M89.56 73.22c-1.256-.286-2.5-.614-3.75-.918-.945-.227-1.931-.346-2.84-.675-1.992-.704-3.57-2.941-3.48-5.036.071-1.623.227-3.246.346-4.863.006-.107.054-.209.066-.316.06-.83.215-1.665.15-2.482a42.732 42.732 0 00-.58-4.267c-.258-1.402-.599-2.792-.951-4.177-.569-2.25-1.436-4.385-2.548-6.426-1.304-2.387-2.96-4.505-4.79-6.504-2.296-2.512-4.987-4.499-7.858-6.307-1.967-1.241-4.246-1.587-6.285-2.572-.227-.107-.454-.262-.694-.31a140.291 140.291 0 00-3.51-.68c-1.19-.215-2.392-.585-3.582-.585-2.5 0-5.005.173-7.505.322-1.13.066-2.195-.024-3.211-.555-2.386-1.247-2.972-3.532-3.409-5.89-.173-.93-.221-1.879-.353-2.822a27.199 27.199 0 00-.358-2.088c-.174-.811-.431-1.611-.592-2.428-.168-.854-.264-1.719-.425-2.799-2.093.96-3.983 1.927-5.956 2.697-2.23.871-4.18 2.202-6.13 3.52-1.291.872-2.493 1.874-3.707 2.853-2.721 2.19-5.066 4.744-7.152 7.53a81.88 81.88 0 00-3.11 4.475c-.772 1.194-1.52 2.417-2.105 3.706-.855 1.88-1.579 3.819-2.326 5.746-.455 1.181-.945 2.363-1.244 3.592a53.595 53.595 0 00-1.023 5.412c-.287 2.077-.514 4.165-.61 6.26-.131 2.828.078 5.65.61 8.443.132.68.215 1.372.347 2.058.227 1.17.377 2.37.73 3.503a63.863 63.863 0 001.877 5.185 66.473 66.473 0 002.16 4.75 42.115 42.115 0 002.08 3.681c.574.901 1.268 1.73 1.926 2.578.58.752 1.16 1.504 1.776 2.226 1.25 1.462 2.404 3.031 3.821 4.314 1.98 1.79 4.144 3.39 6.273 5.018a26.618 26.618 0 003.122 2.089c1.166.656 2.404 1.199 3.636 1.736 1.967.859 3.91 1.796 5.944 2.464 2.021.663 4.126 1.11 6.22 1.51 1.895.364 3.826.704 5.752.77 2.673.095 5.358.024 8.025-.161a36.505 36.505 0 005.735-.872c2.081-.483 4.138-1.139 6.147-1.855 1.938-.692 3.882-1.438 5.694-2.399 2.129-1.122 4.174-2.428 6.159-3.789 1.573-1.074 3.02-2.327 4.497-3.538 2.9-2.387 5.322-5.221 7.427-8.3 1.436-2.107 2.655-4.362 3.893-6.594.64-1.152 1.124-2.393 1.633-3.61.197-.471.269-.996.4-1.522-1.542-.256-2.942-.489-4.347-.727-.676-.114-1.352-.215-2.015-.364v-.006zM15.43 45.368c0 .805-.956 1.659-1.847 1.635-.85-.018-1.68-.806-1.668-1.635.018-.8.556-1.778 1.758-1.641.986.006 1.764.728 1.758 1.635v.006zM9.965 39.98c.072-1.26.885-1.773 1.782-1.707 1.095.078 1.728.728 1.62 1.844-.035 1.068-.759 1.742-1.823 1.694-.903-.035-1.639-.87-1.585-1.837l.006.006zm2.386 38.32c-.897.017-1.83-.818-1.818-1.677.012-.931.891-1.934 1.746-1.73.975 0 1.699.703 1.717 1.676.012.913-.742 1.713-1.645 1.73zm1.699-27.6c-.017-.984.772-1.766 1.789-1.76.915 0 1.853.877 1.871 1.73.018.83-.992 1.749-1.901 1.737-.987-.012-1.74-.74-1.758-1.707zm3.696 29.53c-.658 0-1.854-1.228-1.884-1.938-.03-.812.993-1.79 1.86-1.779.933.012 1.639.812 1.633 1.856 0 .782-.933 1.856-1.609 1.862zm.347-22.363c-.897 0-1.674-.854-1.674-1.832 0-.99.741-1.749 1.698-1.743.915.006 1.83.883 1.854 1.773.024.912-.91 1.802-1.884 1.802h.006zm16.206-32.765c.909.012 1.788.86 1.788 1.724 0 .961-.85 1.844-1.788 1.844-.963 0-1.794-.835-1.794-1.808 0-.925.867-1.778 1.794-1.76zm-2.853 5.12c1.089.012 1.717.644 1.717 1.73 0 1.02-.718 1.73-1.746 1.737-.951.005-1.854-.866-1.83-1.773.024-.877.933-1.706 1.86-1.694zm-8.174 51.333c-1.137-.065-1.657-.543-1.657-1.724 0-1.05.652-1.766 1.639-1.79.897-.024 1.776.853 1.752 1.79-.03 1.122-.831 1.772-1.734 1.718v.006zm5.669 1.6c-.88-.03-1.8-.907-1.794-1.785.006-.93.879-1.796 1.812-1.784.903.006 1.62.77 1.626 1.725.006 1.02-.741 1.873-1.65 1.844h.006zm12.6 17.166c-.843 0-1.824-.9-1.848-1.694-.024-.847.885-1.73 1.806-1.743 1.053-.011 1.776.65 1.806 1.66.03.99-.742 1.777-1.764 1.777zm4.628-3.186c-.849-.006-1.65-.847-1.656-1.742-.012-1.015.682-1.713 1.692-1.707 1.029 0 1.758.716 1.746 1.719-.012.942-.83 1.742-1.782 1.736v-.006zm4.689-3.437c-1.07-.006-1.669-.656-1.65-1.79.023-1.128.567-1.629 1.763-1.623 1.059.006 1.573.567 1.561 1.695-.012 1.14-.586 1.724-1.68 1.718h.006zm4.676-3.425c-.76.012-1.884-.889-1.734-1.88 0-.853.861-1.67 1.764-1.67.945 0 1.842.841 1.812 1.754-.03 1.02-.933 1.784-1.836 1.796h-.006zm-6.01-7.435C35.207 82.601 24.281 71.615 24.3 57.522c.018-13.551 10.89-25.038 25.29-25.062 13.886-.024 25.29 11.582 25.176 25.324-.114 13.861-11.368 24.96-25.242 25.055zm27.455 8.11c-.91.011-1.746-.848-1.746-1.79 0-1.003.729-1.785 1.662-1.785 1.034 0 1.632.639 1.638 1.749.007 1.026-.663 1.813-1.554 1.825zm.245-5.812c-1.13-.018-1.68-.597-1.65-1.743.023-.877.878-1.766 1.71-1.683.819.084 1.638.61 1.62 1.832-.012.913-.717 1.737-1.68 1.594zm.203-5.699c-.861-.024-1.674-.841-1.686-1.724-.012-.842.837-1.796 1.662-1.766.778.03 1.776.668 1.752 1.76.144.811-.98 1.754-1.728 1.736v-.006zm.084-5.83c-.939-.06-1.639-.793-1.627-1.826.012-.877.897-1.772 1.746-1.76.724.012 1.567 1.003 1.561 1.838.036.96-.73 1.808-1.674 1.748h-.006zm29.29-17.167c-.377-2.84-.436-5.752-1.082-8.532-.807-3.509-1.92-6.964-3.17-10.341-1.309-3.526-3.127-6.832-5.22-9.989-2.027-3.055-4.162-6.014-6.686-8.682-2.338-2.47-4.862-4.755-7.636-6.73-1.58-1.122-3.2-2.178-4.826-3.234-3.648-2.375-7.607-4.124-11.71-5.544-1.177-.406-2.397-.674-3.6-1.002-1.542-.424-3.079-.895-4.64-1.253a35.095 35.095 0 00-3.773-.645c-1.4-.167-2.81-.262-4.222-.334C49.207.1 48.179.142 47.15.142c0-.048-.006-.095-.012-.143-1.62.155-3.241.4-4.868.436-1.8.041-3.564.208-5.304.668-.694.185-2.177 1.432-2.153 2.124.054 1.641.162 3.288.341 4.917.12 1.074.407 2.13.61 3.198.024.132.018.269.048.4.197.925.425 1.844.598 2.775.15.787.215 1.593.37 2.38.174.89.425 1.76.605 2.65.239 1.17.358 2.375.687 3.514.252.89 1.627 2.13 2.77 2.059 2.445-.15 4.897-.239 7.349-.328.783-.03 1.578-.06 2.35.065a61.66 61.66 0 014.533.901c1.644.394 3.319.746 4.873 1.379 1.878.757 3.684 1.736 5.46 2.727 1.13.632 2.195 1.408 3.218 2.213 1.788 1.409 3.57 2.805 5.029 4.607 1.836 2.261 3.54 4.588 4.814 7.208.645 1.33 1.148 2.733 1.68 4.117.449 1.176.91 2.357 1.25 3.568.227.8.24 1.66.37 2.483.204 1.265.593 2.53.599 3.8.018 2.411-.18 4.822-.287 7.233 0 .053.012.119-.018.16-.485.74-.311 1.439-.018 2.226.4 1.098 1.53 2.125 2.679 2.238.723.072 1.441.227 2.153.388.73.167 1.435.423 2.17.567.85.16 1.717.226 2.572.358.616.095 1.232.209 1.842.34.867.19 1.728.412 2.59.608.208.048.424.054.633.102.837.179 1.662.382 2.506.543.741.143 1.519.155 2.23.382 1.98.632 3.881-.191 4.455-2.196.401-1.408.628-2.882.736-4.344.245-3.33.634-6.665.185-10.013l.006-.012zM46.217 15.65c-2.14.024-3.522-1.885-3.504-3.466.024-1.964 1.848-3.605 3.582-3.455 1.914.006 3.594 1.646 3.606 3.514.012 1.707-1.83 3.39-3.684 3.413v-.006zm48.642 50.183c-2.01-.024-3.445-1.785-3.492-3.563-.054-1.844 1.686-3.443 3.594-3.437 2.26.036 3.426 1.689 3.492 3.467.06 1.718-1.363 3.556-3.594 3.532zM50.6 34.847c-13.24-.52-23.927 9.852-23.86 22.806-.037 12.495 9.795 22.662 22.676 22.752 12.558.095 22.802-9.893 22.927-22.669C72.47 45.247 62.16 35.295 50.6 34.841v.006zM36.002 69.64c-2.14-.017-4.222-1.706-4.108-4.254.102-2.333 1.615-3.843 4.168-3.956 2.308.161 3.995 1.486 4.013 4.105.018 2.632-2.111 4.13-4.073 4.111v-.006zm1.83-18.258c-2.194-.03-4.024-1.886-4.024-4.13-.156-2.518 2.218-4.099 4.042-4.11 1.878-.013 4.12 1.55 4.12 4.122 0 2.303-2.158 4.135-4.138 4.111v.007zm14.944 25.64c-2.511-.054-4.084-2.047-4.114-4.1-.03-2.1 1.663-3.968 4.198-4.195 1.92.108 4.096 1.856 4.06 4.147-.035 2.37-1.99 4.195-4.144 4.148zm-3.17-11.296c-4.406.096-8.204-3.676-8.18-8.103.024-4.481 3.923-8.18 8.121-8.055 5.023-.084 8.11 4.099 8.091 8.115-.024 4.564-3.66 7.948-8.037 8.043h.006zm7.243-18.33c-3.505.179-5.22-1.69-5.053-3.974-.246-2.602 2.182-4.19 3.922-4.16 2.147.036 4.109 1.397 4.24 4.166.084 1.825-1.638 3.89-3.11 3.968zm12.36 11.85c-.047 2.005-1.782 4.016-4.168 4.01-2.039-.006-4.012-1.54-4.018-4.028 0-2.214 1.686-4.225 4.078-3.962 2.404-.364 4.144 2.244 4.109 3.986v-.006z" fill="#EC8020"/></svg>.0477357 47.1372 0C45.5166 0.155141 43.896 0.399786 42.2694 0.435588C40.4694 0.477357 38.7053 0.644432 36.9651 1.10389C36.2714 1.28886 34.7883 2.53596 34.8123 3.22812C34.8661 4.86904 34.9737 6.51592 35.1531 8.1449C35.2727 9.21895 35.5598 10.2751 35.7631 11.3432C35.787 11.4745 35.781 11.6117 35.8109 11.743C36.0083 12.6679 36.2355 13.5868 36.4089 14.5176C36.5584 15.3053 36.6242 16.1108 36.7797 16.8984C36.9531 17.7875 37.2043 18.6587 37.3837 19.5478C37.6229 20.7173 37.7425 21.9226 38.0714 23.0623C38.3226 23.9514 39.698 25.1925 40.8402 25.1209C43.286 24.9717 45.7378 24.8822 48.1897 24.7927C48.973 24.7629 49.7684 24.733 50.5398 24.8584C52.0588 25.103 53.5777 25.4013 55.0727 25.7594C56.7172 26.1532 58.3916 26.5052 59.9464 27.1377C61.8242 27.8955 63.6302 28.8741 65.4062 29.8646C66.5365 30.4971 67.6009 31.2728 68.6235 32.0784C70.4116 33.4866 72.1936 34.8828 73.6527 36.6849C75.4886 38.9463 77.1929 41.2735 78.4667 43.8929C79.1125 45.2236 79.6149 46.6258 80.1471 48.0102C80.5956 49.1856 81.0561 50.3671 81.3969 51.5784C81.6242 52.378 81.6361 53.2372 81.7677 54.0606C81.971 55.3256 82.3597 56.5906 82.3657 57.8616C82.3836 60.2723 82.1863 62.6829 82.0786 65.0936C82.0786 65.1473 82.0906 65.2129 82.0607 65.2547C81.5763 65.9946 81.7497 66.6927 82.0428 67.4803C82.4434 68.5783 83.5737 69.6046 84.7218 69.7179C85.4454 69.7896 86.163 69.9447 86.8747 70.1058C87.6042 70.2729 88.3099 70.5294 89.0454 70.6727C89.8946 70.8338 90.7617 70.8994 91.6168 71.0307C92.2328 71.1262 92.8487 71.2395 93.4587 71.3708C94.3258 71.5617 95.1869 71.7825 96.0481 71.9794C96.2574 72.0272 96.4726 72.0331 96.6819 72.0809C97.5192 72.2599 98.3444 72.4628 99.1876 72.6239C99.9291 72.7671 100.707 72.779 101.418 73.0057C103.398 73.6382 105.299 72.8148 105.873 70.8099C106.274 69.4017 106.501 67.9279 106.609 66.466C106.854 63.1364 107.243 59.8009 106.794 56.4534L106.8 56.4415ZM46.2162 15.6513C44.0754 15.6752 42.694 13.7658 42.7119 12.1845C42.7358 10.2214 44.5598 8.58049 46.294 8.72966C48.2076 8.73563 49.888 10.3765 49.8999 12.2442C49.9119 13.9508 48.0701 15.6334 46.2162 15.6573V15.6513ZM94.858 65.8335C92.8487 65.8096 91.4135 64.0493 91.3657 62.2712C91.3119 60.4274 93.0521 58.8282 94.9597 58.8342C97.2202 58.87 98.3863 60.5229 98.452 62.301C98.5118 64.0195 97.0886 65.8573 94.858 65.8335ZM50.5996 34.847C37.3598 34.3279 26.6734 44.6985 26.7392 57.6528C26.7033 70.1476 36.5345 80.3153 49.4156 80.4048C61.9737 80.5002 72.2175 70.5116 72.3431 57.7363C72.4687 45.2474 62.1591 35.2946 50.5996 34.8411V34.847ZM36.0023 69.6404C33.8614 69.6225 31.7804 67.9338 31.894 65.3859C31.9957 63.0529 33.5086 61.5432 36.0621 61.4298C38.3704 61.591 40.0568 62.9156 40.0747 65.5351C40.0927 68.1665 37.9637 69.6642 36.0023 69.6463V69.6404ZM37.8322 51.3815C35.6375 51.3517 33.8076 49.4959 33.8076 47.2523C33.6521 44.7343 36.0262 43.153 37.8501 43.1411C39.7279 43.1292 41.9704 44.6925 41.9704 47.2643C41.9704 49.5675 39.8116 51.3994 37.8322 51.3755V51.3815ZM52.7764 77.0215C50.2647 76.9678 48.692 74.9748 48.6621 72.9222C48.6322 70.8218 50.3245 68.9542 52.8601 68.7274C54.7797 68.8348 56.9564 70.5832 56.9205 72.8745C56.8847 75.2434 54.9292 77.0692 52.7764 77.0215ZM49.6069 65.7261C45.1996 65.8215 41.4023 62.0504 41.4262 57.6229C41.4501 53.1417 45.3491 49.4422 49.5471 49.5675C54.5704 49.484 57.6561 53.6668 57.6381 57.6826C57.6142 62.2473 53.9784 65.6306 49.6009 65.7261H49.6069ZM56.8488 47.3956C53.3445 47.5746 51.6282 45.7069 51.7956 43.4216C51.5504 40.82 53.9784 39.2328 55.7185 39.2626C57.8654 39.2984 59.8268 40.6589 59.9584 43.4275C60.0421 45.2534 58.3199 47.318 56.8488 47.3956ZM69.2096 59.2459C69.1617 61.2508 67.4275 63.2617 65.0415 63.2557C63.0023 63.2498 61.0288 61.7163 61.0229 59.228C61.0229 57.0143 62.7092 55.0034 65.1013 55.266C67.5052 54.902 69.2454 57.5095 69.2096 59.2519V59.2459Z" fill="#EC8020"/>
</svg>
